build/img/visa-logo.svg

<?xml version="1.0" encoding="UTF-8"?>
<svg fill="none" viewBox="0 0 50 17" xmlns="http://www.w3.org/2000/svg">
<g clip-path="url(#b)">
<path d="m25.859 5.1987c-0.0285 2.2652 2.0044 3.5293 3.5358 4.2808 1.5735 0.77114 2.102 1.2656 2.096 1.9551-0.012 1.0555-1.2552 1.5212-2.4188 1.5394-2.0299 0.0317-3.21-0.552-4.1484-0.9935l-0.7312 3.4461c0.9414 0.437 2.6846 0.8181 4.4923 0.8347 4.243 0 7.0191-2.1094 7.0341-5.3801 0.0165-4.1508-5.7009-4.3806-5.6618-6.236 0.0135-0.5625 0.5465-1.1628 1.7146-1.3155 0.578-0.07712 2.174-0.13609 3.9832 0.70313l0.7102-3.3342c-0.9729-0.35686-2.2236-0.6986-3.7806-0.6986-3.9937 0-6.8029 2.1381-6.8254 5.1987zm17.43-4.9114c-0.7747 0-1.4278 0.45515-1.7191 1.1538l-6.0612 14.575h4.24l0.8438-2.3483h5.1813l0.4895 2.3483h3.737l-3.2611-15.729h-3.4502zm0.5931 4.249 1.2236 5.9064h-3.3512l2.1276-5.9064zm-23.164-4.249-3.3422 15.729h4.0403l3.3407-15.729h-4.0388zm-5.9771 0-4.2055 10.706-1.7011-9.103c-0.19968-1.0161-0.98792-1.6028-1.8632-1.6028h-6.875l-0.09609 0.45666c1.4113 0.30847 3.0148 0.80596 3.9862 1.3382 0.59456 0.32511 0.76422 0.60939 0.9594 1.3821l3.222 12.552h4.27l6.5461-15.729h-4.2429z" fill="url(#a)"/>
</g>
<defs>
<linearGradient id="a" x1="22.987" x2="23.461" y1="16.588" y2="-.1129" gradientUnits="userSpaceOnUse">
<stop stop-color="#222357" offset="0"/>
<stop stop-color="#254AA5" offset="1"/>
</linearGradient>
<clipPath id="b">
<rect width="50" height="16.326" fill="#fff"/>
</clipPath>
</defs>
</svg>

<svg width="50" height="17" viewBox="0 0 50 17" fill="none" xmlns="http://www.w3.org/2000/svg">
<g clip-path="url(#clip0)">
<path d="M25.8588 5.19866C25.8303 7.46381 27.8632 8.72794 29.3946 9.47946C30.9681 10.2506 31.4966 10.7451 31.4906 11.4346C31.4786 12.4901 30.2354 12.9558 29.0718 12.974C27.0419 13.0057 25.8618 12.422 24.9234 11.9805L24.1922 15.4266C25.1336 15.8636 26.8768 16.2447 28.6845 16.2613C32.9275 16.2613 35.7036 14.1519 35.7186 10.8812C35.7351 6.73043 30.0177 6.50059 30.0568 4.64522C30.0703 4.08272 30.6033 3.4824 31.7714 3.32968C32.3494 3.25256 33.9454 3.19359 35.7546 4.03281L36.4648 0.698596C35.4919 0.341737 34.2412 -1.90735e-06 32.6842 -1.90735e-06C28.6905 -1.90735e-06 25.8813 2.13813 25.8588 5.19866ZM43.2887 0.2873C42.514 0.2873 41.8609 0.742448 41.5696 1.44105L35.5084 16.0163H39.7484L40.5922 13.668H45.7735L46.263 16.0163H50L46.7389 0.2873H43.2887ZM43.8818 4.53635L45.1054 10.4427H41.7542L43.8818 4.53635ZM20.718 0.2873L17.3758 16.0163H21.4161L24.7568 0.2873H20.718ZM14.7409 0.2873L10.5354 10.9931L8.8343 1.89014C8.63462 0.874002 7.84638 0.2873 6.97105 0.2873H0.0960903L0 0.743959C1.41133 1.05243 3.01483 1.54992 3.98625 2.08218C4.58081 2.40729 4.75047 2.69157 4.94565 3.46426L8.16768 16.0163H12.4377L18.9838 0.2873H14.7409Z" fill="url(#paint0_linear)"/>
</g>
<defs>
<linearGradient id="paint0_linear" x1="22.9871" y1="16.5875" x2="23.4611" y2="-0.112896" gradientUnits="userSpaceOnUse">
<stop stop-color="#222357"/>
<stop offset="1" stop-color="#254AA5"/>
</linearGradient>
<clipPath id="clip0">
<rect width="50" height="16.3265" fill="white"/>
</clipPath>
</defs>
</svg>
